X:8
T:Nous avons vu - E120
M:4/4
L:1/8
K:Cm
"Dom"C2CD E2G2|"Fam"FG FE F4|"Dom"C2CD E2F2|"Mib"G4 G4|"Fam"A2AG F2A2|"Dom"GA GF E4|"Sol"D3E GFED|"Dom"C4 "Sib"C4||
"Mib"E2EF G2B2|"Sib"AB AG F4|"Mib"E2EF G2 A2|"Solm"B4 B4|"Lab"c2cB A2c2|"Mib"Bc BA G4|"Sol"F2EF G2G2|"Dom"C4 C4||
